X: 81
T: Out on the Ocean v.1   [G]
R: jig
Z: 2012 John Chambers <jc:trillian.mit.edu>
S: printed MS of unknown origin
M: 6/8
L: 1/8
K: G
E |\
"G"D2B BAG | BdB "D7"ABA | "G"GED G2A | ~B3 "D7"AGE |\
"G"D2B BAG | BdB "D7"ABA | "G"GED G2A |1 "G"BGF G2 :|2 "G"BGF GBd ||
|:\
"Em"~e3 edB | efe edB | "D"~d3 dBA | d2d dBA |\
"G"G2A B2d | "C"ege "D7"dBA | "G"GED "D7"G2A |1 "G"BGF GBd :|2 "G"BGF G2 |]

%%sep 1 1 500

